X: 183
T: Old Man and His Dog (jig)
N: 150020
C: BB
R: jig
Q: 1/8=340
M: 6/8
L: 1/8
K: G
B/c/ |"G"d2 B GDG | "D"A2 F D2 A | "G"ded "C"cBc | "G"d2 d "D"dBc |
"G"d2 B GDG | "D"A2 F D2 A | "G"ded "D7"cBA | "G"GEF "G"G2 :|
d|"G"gdg gdg | "D7"a2 f d2 c | "G"Bcd "C"ecB | "D"A3-ABc |
"G"dGG DGG |"D" AFF DFF | "G"ded "D7"cBA |"G"GBA "G"G2 :|
%%%%%%%%%%%%%%%%%%%%%%%%%%%%%%%%%%%%%%%%%%%
